X:36
T:Ciaran's 1st Contra
M:2/4
L:1/8
C:© Paul Gitlitz 1998
R:Polka
B:Giblitz Fancy
N:In honor of his birth.
K:G
D|:"G"GD ED|B,D DA|B/c/B/A/ GB|"D"A3D|!
"G"GD ED|B,D DA|B/c/B/A/ "D"GF|1"Em"E2-E/D/E/F/:|2"Em"E3e|!
|:"G"gB "D"dF|Ad de|f/a/f/e/ df|"Em"e3e/f/|!
"G"gb "D"fa|e/f/e/d/ "Bm"BA|B/c/B/A/ "G"GF|1"Em"E3e/f/:|2"Em"E3|]
